img/administrator.svg

<svg fill="none" height="14" viewBox="0 0 14 14" width="14" xmlns="http://www.w3.org/2000/svg" xmlns:xlink="http://www.w3.org/1999/xlink"><filter id="a" color-interpolation-filters="sRGB" filterUnits="userSpaceOnUse" height="484" width="300" x="-32" y="-373"><feFlood flood-opacity="0" result="BackgroundImageFix"/><feColorMatrix in="SourceAlpha" result="hardAlpha" type="matrix" values="0 0 0 0 0 0 0 0 0 0 0 0 0 0 0 0 0 0 127 0"/><feOffset dy="4"/><feGaussianBlur stdDeviation="8"/><feComposite in2="hardAlpha" operator="out"/><feColorMatrix type="matrix" values="0 0 0 0 0.141176 0 0 0 0 0.223529 0 0 0 0 0.337255 0 0 0 0.15 0"/><feBlend in2="BackgroundImageFix" mode="normal" result="effect1_dropShadow_0_1"/><feBlend in="SourceGraphic" in2="effect1_dropShadow_0_1" mode="normal" result="shape"/></filter><clipPath id="b"><path d="m-32-394h345v501h-345z"/></clipPath><path d="m0 0h14v14h-14z" fill="#1e1e1e"/><path d="m-812-2370c0-1.1.895-2 2-2h2880c1.1 0 2 .9 2 2v12660c0 1.1-.9 2-2 2h-2880c-1.105 0-2-.9-2-2z" fill="#404040"/><path d="m-810-2371h2880v-2h-2880zm2881 1v12660h2v-12660zm-1 12661h-2880v2h2880zm-2881-1v-12660h-2v12660zm1 1c-.552 0-1-.4-1-1h-2c0 1.7 1.343 3 3 3zm2881-1c0 .6-.45 1-1 1v2c1.66 0 3-1.3 3-3zm-1-12661c.55 0 1 .45 1 1h2c0-1.66-1.34-3-3-3zm-2880-2c-1.657 0-3 1.34-3 3h2c0-.55.448-1 1-1z" fill="#fff" fill-opacity=".1"/><path d="m-39-2205h360v799h-360z" fill="#e5e9ec"/><rect fill="#fff" height="573" rx="8" width="345" x="-32" y="-450"/><g clip-path="url(#b)"><g filter="url(#a)"><rect fill="#fff" height="452" rx="8" width="268" x="-16" y="-361"/><rect height="451" rx="7.5" stroke="#213551" stroke-opacity=".1" width="267" x="-15.5" y="-360.5"/><g fill="#1c8aa9"><path d="m9.54936 9.9706c.16026.5198.1246.462.17805.5582-.26709.3273-.56982.5968-.90814.7893-.35611-.1925-.65886-.4427-.90814-.7893.05345-.1154 0 .0385.16027-.53898.2315.17328.4808.26948.73009.26948.26709-.0192.53425-.1154.74789-.28872z"/><path d="m10.262 7.81449c-.089.96256-.74789 2.04051-1.4601 2.04051-.73009 0-1.37108-1.09726-1.4601-2.05981v-.01924c0-.03846 0-1.00101 1.08621-1.09725.10681-.03846.37389-.07702.60541-.07702.76566 0 1.24648.3273 1.22868 1.15505-.0001.03855-.0001.05778-.0001.05778z"/><path d="m7.18164 7.06381c0-.32729.07124-.63526.2315-.924.62319-1.03947 1.56701-.67372 2.40398-.67372.10682 0 .30278-.03846.39178.09624.0712.09625.0534.28875.0356.34652-.0178.09624.0178.17326.089.21172.2849.30797.3739.6545.2137 1.09726-.1958-.71229-.83689-.96256-1.51353-.96256-.32052 0-.58761.05778-.64107.07701-.67672.05779-1.03284.40421-1.21089.73151z"/><path d="m12.0959 11.9728v.8855c0 .0578-.0356.0962-.089.0962h-6.37482c-.05345 0-.08903-.0384-.08903-.0962l-.00008-.8855c0-.4813.32052-.847.71223-.924l1.33551-.2696c.01779 0 .01779-.0192.03557-.0192.30275.385.65887.6931 1.06842.9048.07124.0578.16026.0578.21372 0 .40957-.2117.76567-.5198 1.06841-.9048.01779 0 .01779.0192.03557.0192l1.3355.2696c.4274.077.748.4427.748.924z"/><path d="m3.94031 2.7518v-1.65561l-1.51355 1.63628z"/><path d="m8.24961 1.01923-3.95298-.01923-.01779 1.94424c0 .09625-.08903.19249-.17806.19249l-1.78073-.01914-.05345 6.08308c0 .11547.07124.19249.17806.19249l4.64742.03846c-.2493-.44277-.40957-.96255-.463-1.48224-.28487-.7315-.19585-1.54003.19584-2.21375.35612-.59681.94373-.98177 1.5848-1.0588l.01779-3.46512c.00016-.09625-.07107-.19258-.17789-.19258zm-3.63252 6.83382c0 .09625-.08903.1925-.17806.1925h-.89036c-.10682 0-.17806-.09625-.17806-.1925v-.96255c0-.09625.08903-.1925.17806-.1925h.89036c.10682 0 .17806.09625.17806.1925zm.01787-2.40628c0 .09625-.08903.1925-.17806.1925h-.89036c-.10682 0-.17806-.09625-.17806-.1925v-.96255c0-.11548.08903-.1925.17806-.1925h.89036c.10682 0 .17806.09625.17806.1925zm1.42453 2.1176h-.53417c-.10681 0-.17805-.07701-.17805-.19249s.07124-.1925.17805-.1925h.53417c.10681 0 .17805.07702.17805.1925s-.07123.19249-.17805.19249zm.71223-2.40628h-1.24648c-.10682 0-.17806-.07701-.17806-.19249s.07124-.19249.17806-.19249h1.24648c.10682 0 .17806.07701.17806.19249s-.07124.19249-.17806.19249zm.35612-2.02126h-1.60258c-.10681 0-.17806-.07701-.17806-.19249s.07124-.1925.17806-.1925h1.60258c.10681 0 .17805.07702.17805.1925 0 .11547-.07115.19249-.17805.19249z"/><path d="m4.27245 7.64635-.53417-.00381.00353-.57748.53416.00381z"/><path d="m4.28416 5.2462-.53416-.00381.00353-.57747.53416.00381z"/></g></g></g></svg>

<svg width="14" height="14" viewBox="0 0 14 14" fill="none" xmlns="http://www.w3.org/2000/svg">
<rect width="14" height="14" fill="#1E1E1E"/>
<path d="M-812 -2370C-812 -2371.1 -811.105 -2372 -810 -2372H2070C2071.1 -2372 2072 -2371.1 2072 -2370V10290C2072 10291.1 2071.1 10292 2070 10292H-810C-811.105 10292 -812 10291.1 -812 10290V-2370Z" fill="#404040"/>
<path d="M-810 -2371H2070V-2373H-810V-2371ZM2071 -2370V10290H2073V-2370H2071ZM2070 10291H-810V10293H2070V10291ZM-811 10290V-2370H-813V10290H-811ZM-810 10291C-810.552 10291 -811 10290.6 -811 10290H-813C-813 10291.7 -811.657 10293 -810 10293V10291ZM2071 10290C2071 10290.6 2070.55 10291 2070 10291V10293C2071.66 10293 2073 10291.7 2073 10290H2071ZM2070 -2371C2070.55 -2371 2071 -2370.55 2071 -2370H2073C2073 -2371.66 2071.66 -2373 2070 -2373V-2371ZM-810 -2373C-811.657 -2373 -813 -2371.66 -813 -2370H-811C-811 -2370.55 -810.552 -2371 -810 -2371V-2373Z" fill="white" fill-opacity="0.1"/>
<rect width="360" height="799" transform="translate(-39 -2205)" fill="#E5E9EC"/>
<rect x="-32" y="-450" width="345" height="573" rx="8" fill="white"/>
<g clip-path="url(#clip0_0_1)">
<g filter="url(#filter0_d_0_1)">
<rect x="-16" y="-361" width="268" height="452" rx="8" fill="white"/>
<rect x="-15.5" y="-360.5" width="267" height="451" rx="7.5" stroke="#213551" stroke-opacity="0.1"/>
<path d="M9.54936 9.9706C9.70962 10.4904 9.67396 10.4326 9.72741 10.5288C9.46032 10.8561 9.15759 11.1256 8.81927 11.3181C8.46316 11.1256 8.16041 10.8754 7.91113 10.5288C7.96458 10.4134 7.91113 10.5673 8.0714 9.98982C8.3029 10.1631 8.5522 10.2593 8.80149 10.2593C9.06858 10.2401 9.33574 10.1439 9.54938 9.97058L9.54936 9.9706Z" fill="#1C8AA9"/>
<path d="M10.262 7.81449C10.173 8.77705 9.51411 9.855 8.8019 9.855C8.07181 9.855 7.43082 8.75774 7.3418 7.79519V7.77595C7.3418 7.73749 7.3418 6.77494 8.42801 6.6787C8.53482 6.64024 8.8019 6.60168 9.03342 6.60168C9.79908 6.60168 10.2799 6.92898 10.2621 7.75673C10.262 7.79528 10.262 7.81451 10.262 7.81451L10.262 7.81449Z" fill="#1C8AA9"/>
<path d="M7.18164 7.06381C7.18164 6.73652 7.25288 6.42855 7.41314 6.13981C8.03633 5.10034 8.98015 5.46609 9.81712 5.46609C9.92394 5.46609 10.1199 5.42763 10.2089 5.56233C10.2801 5.65858 10.2623 5.85108 10.2445 5.90885C10.2267 6.00509 10.2623 6.08211 10.3335 6.12057C10.6184 6.42854 10.7074 6.77507 10.5472 7.21783C10.3514 6.50554 9.71031 6.25527 9.03367 6.25527C8.71315 6.25527 8.44606 6.31305 8.3926 6.33228C7.71588 6.39007 7.35976 6.73649 7.18171 7.06379L7.18164 7.06381Z" fill="#1C8AA9"/>
<path d="M12.0959 11.9728V12.8583C12.0959 12.9161 12.0603 12.9545 12.0069 12.9545H5.63208C5.57863 12.9545 5.54305 12.9161 5.54305 12.8583L5.54297 11.9728C5.54297 11.4915 5.86349 11.1258 6.2552 11.0488L7.59071 10.7792C7.6085 10.7792 7.6085 10.76 7.62628 10.76C7.92903 11.145 8.28515 11.4531 8.6947 11.6648C8.76594 11.7226 8.85496 11.7226 8.90842 11.6648C9.31799 11.4531 9.67409 11.145 9.97683 10.76C9.99462 10.76 9.99462 10.7792 10.0124 10.7792L11.3479 11.0488C11.7753 11.1258 12.0959 11.4915 12.0959 11.9728Z" fill="#1C8AA9"/>
<path d="M3.94031 2.7518V1.09619L2.42676 2.73247L3.94031 2.7518Z" fill="#1C8AA9"/>
<path d="M8.24961 1.01923L4.29663 1L4.27884 2.94424C4.27884 3.04049 4.18981 3.13673 4.10078 3.13673L2.32005 3.11759L2.2666 9.20067C2.2666 9.31614 2.33784 9.39316 2.44466 9.39316L7.09208 9.43162C6.84278 8.98885 6.68251 8.46907 6.62908 7.94938C6.34421 7.21788 6.43323 6.40935 6.82492 5.73563C7.18104 5.13882 7.76865 4.75386 8.40972 4.67683L8.42751 1.21171C8.42767 1.11546 8.35644 1.01913 8.24962 1.01913L8.24961 1.01923ZM4.61709 7.85305C4.61709 7.9493 4.52806 8.04555 4.43903 8.04555H3.54867C3.44185 8.04555 3.37061 7.9493 3.37061 7.85305V6.8905C3.37061 6.79425 3.45964 6.698 3.54867 6.698H4.43903C4.54585 6.698 4.61709 6.79425 4.61709 6.8905V7.85305ZM4.63496 5.44677C4.63496 5.54302 4.54593 5.63927 4.4569 5.63927H3.56654C3.45972 5.63927 3.38848 5.54302 3.38848 5.44677V4.48422C3.38848 4.36874 3.47751 4.29172 3.56654 4.29172H4.4569C4.56372 4.29172 4.63496 4.38797 4.63496 4.48422V5.44677ZM6.05949 7.56437H5.52532C5.41851 7.56437 5.34727 7.48736 5.34727 7.37188C5.34727 7.2564 5.41851 7.17938 5.52532 7.17938H6.05949C6.1663 7.17938 6.23754 7.2564 6.23754 7.37188C6.23754 7.48736 6.16631 7.56437 6.05949 7.56437ZM6.77172 5.15809H5.52524C5.41842 5.15809 5.34718 5.08108 5.34718 4.9656C5.34718 4.85012 5.41842 4.77311 5.52524 4.77311H6.77172C6.87854 4.77311 6.94978 4.85012 6.94978 4.9656C6.94978 5.08108 6.87854 5.15809 6.77172 5.15809ZM7.12784 3.13683H5.52526C5.41845 3.13683 5.3472 3.05982 5.3472 2.94434C5.3472 2.82886 5.41844 2.75184 5.52526 2.75184H7.12784C7.23465 2.75184 7.30589 2.82886 7.30589 2.94434C7.30589 3.05981 7.23474 3.13683 7.12784 3.13683Z" fill="#1C8AA9"/>
<path d="M4.27245 7.64635L3.73828 7.64254L3.74181 7.06506L4.27597 7.06887L4.27245 7.64635Z" fill="#1C8AA9"/>
<path d="M4.28416 5.2462L3.75 5.24239L3.75353 4.66492L4.28769 4.66873L4.28416 5.2462Z" fill="#1C8AA9"/>
</g>
</g>
<defs>
<filter id="filter0_d_0_1" x="-32" y="-373" width="300" height="484" filterUnits="userSpaceOnUse" color-interpolation-filters="sRGB">
<feFlood flood-opacity="0" result="BackgroundImageFix"/>
<feColorMatrix in="SourceAlpha" type="matrix" values="0 0 0 0 0 0 0 0 0 0 0 0 0 0 0 0 0 0 127 0" result="hardAlpha"/>
<feOffset dy="4"/>
<feGaussianBlur stdDeviation="8"/>
<feComposite in2="hardAlpha" operator="out"/>
<feColorMatrix type="matrix" values="0 0 0 0 0.141176 0 0 0 0 0.223529 0 0 0 0 0.337255 0 0 0 0.15 0"/>
<feBlend mode="normal" in2="BackgroundImageFix" result="effect1_dropShadow_0_1"/>
<feBlend mode="normal" in="SourceGraphic" in2="effect1_dropShadow_0_1" result="shape"/>
</filter>
<clipPath id="clip0_0_1">
<rect width="345" height="501" fill="white" transform="translate(-32 -394)"/>
</clipPath>
</defs>
</svg>
